X: 15851
T: Gorymdaith Gwŷr Cyfarthfa
R: jig
M: 6/8
K: Dmajor
|:a|"D" afd d2 f|"A" ecA A2 A|"G" Bcd a2 f|"A" f3 e2 a|
"D" afd d2 f|"A" ecA A2 A|"G" Baf "A"edc|"D" d3 d2:|
|:A|"D" dff faf|"A" gee e2 d|cee ege|"D" fdd d3|
"D" aff f2 a|"G" gee e2 a|"D" faf "A" gec|"D" ddd d2:|

